X: 32581
T: Planxty Joe Burke
R: hornpipe
M: 4/4
K: Dmixolydian
|:G,A,B,C DGFG|vCuGFG vB,uGFG|vG,A,B,C DGFG|cBAG FuAdc|
BDBc dGFG|vCuGFG vB,uGFG|FGFG BAvGF|1 GEDB, vG,G,G,A,:|2 GEDB, G,2 dc||
|:Bc (3ddB edcB|AB (3cBA dcBA|vGuABG cBAG|FudAF DCB,A,|
G,A,B,C DGFG|vCuGFG DGFG|FGFG BAvGF|1 GEDB, G,2dc:|2 GEDB, G,G,G,A,||

